X:1
T:D Tune
R:reel
C:John Wobus
S:John Wobus composed 3/1/2005
M:2/4
K:D
A2|:d2dd BAAA | FABF A2AB | d2dd BAAA | ABde fedB | d2dd BAAA |
 FABF A2DE |1 F3A FEDB, | A,B,DE FEDD  :|2 F3A FEDF | EDEF EDB,D ||
|:A,B,DE FEDE | FDAD BDAD | F2FA FEDB, | A,B,DE FEDB, |
  A,B,DE FEDE | FDAD BDAD | G3A FEDF | EDEF EDB,D :|
W:Copyright 2005 John Wobus, PGTPPCATPL AORR
